assets/img/braze_icons/battery-empty.svg

<svg fill="none" height="24" viewBox="0 0 24 24" width="24" xmlns="http://www.w3.org/2000/svg"><g fill="#801ed7"><path clip-rule="evenodd" d="m14.2413 5h-7.4826c-.80496-.00001-1.46933-.00002-2.01052.04419-.5621.04593-1.07881.14449-1.56414.39179-.75265.38349-1.36457.99541-1.74806 1.74806-.2473.48533-.34586 1.00204-.39179 1.56414-.044212.54119-.044202 1.20554-.04419 2.01052v2.4826c-.000012.805-.000022 1.4693.04419 2.0105.04593.5621.14449 1.0788.39179 1.5642.38349.7526.99541 1.3645 1.74806 1.748.48533.2473 1.00204.3459 1.56414.3918.5412.0442 1.20556.0442 2.01055.0442h7.48257c.805 0 1.4693 0 2.0105-.0442.5621-.0459 1.0788-.1445 1.5642-.3918.7526-.3835 1.3645-.9954 1.748-1.748.2473-.4854.3459-1.0021.3918-1.5642.0442-.5412.0442-1.2055.0442-2.0105v-2.4826c0-.80498 0-1.46934-.0442-2.01052-.0459-.5621-.1445-1.07881-.3918-1.56414-.3835-.75265-.9954-1.36457-1.748-1.74806-.4854-.2473-1.0021-.34586-1.5642-.39179-.5412-.04421-1.2055-.0442-2.0105-.04419z" fill-rule="evenodd"/><path d="m23 11c0-.5523-.4477-1-1-1s-1 .4477-1 1v2c0 .5523.4477 1 1 1s1-.4477 1-1z"/></g></svg>

<svg width="24" height="24" viewBox="0 0 24 24" fill="none" xmlns="http://www.w3.org/2000/svg">
<path fill-rule="evenodd" clip-rule="evenodd" d="M14.2413 5H6.7587C5.95374 4.99999 5.28937 4.99998 4.74818 5.04419C4.18608 5.09012 3.66937 5.18868 3.18404 5.43598C2.43139 5.81947 1.81947 6.43139 1.43598 7.18404C1.18868 7.66937 1.09012 8.18608 1.04419 8.74818C0.999978 9.28937 0.999988 9.95372 1 10.7587V13.2413C0.999988 14.0463 0.999978 14.7106 1.04419 15.2518C1.09012 15.8139 1.18868 16.3306 1.43598 16.816C1.81947 17.5686 2.43139 18.1805 3.18404 18.564C3.66937 18.8113 4.18608 18.9099 4.74818 18.9558C5.28938 19 5.95374 19 6.75873 19H14.2413C15.0463 19 15.7106 19 16.2518 18.9558C16.8139 18.9099 17.3306 18.8113 17.816 18.564C18.5686 18.1805 19.1805 17.5686 19.564 16.816C19.8113 16.3306 19.9099 15.8139 19.9558 15.2518C20 14.7106 20 14.0463 20 13.2413V10.7587C20 9.95372 20 9.28936 19.9558 8.74818C19.9099 8.18608 19.8113 7.66937 19.564 7.18404C19.1805 6.43139 18.5686 5.81947 17.816 5.43598C17.3306 5.18868 16.8139 5.09012 16.2518 5.04419C15.7106 4.99998 15.0463 4.99999 14.2413 5Z" fill="#801ED7"/>
<path d="M23 11C23 10.4477 22.5523 10 22 10C21.4477 10 21 10.4477 21 11V13C21 13.5523 21.4477 14 22 14C22.5523 14 23 13.5523 23 13V11Z" fill="#801ED7"/>
</svg>
